X:643
T:555 세번 아멘
Z:Danish
Z:Copyright May 15th 2000 by 전도환
Z:All Rights Reserved
%%score 1 2 3 4
L:1/4
M:4/4
I:linebreak $
K:Ab
V:1 treble
V:2 treble
V:3 bass
V:4 bass
V:1
 c2 B z | A2 G z | (F2 B2 | A2 G2) | A4 |] |] %6
w: 아 멘|아 멘|아 *||멘||
V:2
 A2 G z | F2 E z | (D2 F2 | E4) | E4 |] |] %6
V:3
 E2 E z | C2 C z | (A,2 D2 | C2 B,2) | C4 |] |] %6
V:4
 A,2 E, z | F,2 C, z | (D,2 B,,2 | E,4) | A,,4 |] |] %6
